X: 32
T:Killavil Fancy
M:4/4
L:1/8
C:Trad.
S:Arr. Barra MacNeils
R:Reel
K:G
||DGBG A2 BA|G ~E3 cEGE|DGBG A2 BA|GEED EFGA|!
|B2 dB A2 BA|G ~E3 cEGE|DGBG A2 BA|GEED EG G2||!
||GABd e2 ge|dEEA dBAB|GABd e2 ge|dBAG EG G2|!
|GABd e2 ge|dBBA dega|bgag egde|gedB AGEG||!
